src/actions/32/document-save-as.svg

<svg xmlns="http://www.w3.org/2000/svg" viewBox="0 0 32 32">
  <defs
     id="defs3051">
    <style
       type="text/css"
       id="current-color-scheme">
      .ColorScheme-Text {
        color:#2e3440;
      }
      </style>
  </defs>
  <path
     style="fill:currentColor;fill-opacity:1;stroke:none" 
     d="M 4 4 L 4 28 L 15 28 L 15 27 L 10 27 L 10 20 L 18 20 L 18 19 L 9 19 L 9 27 L 5 27 L 5 5 L 10 5 L 10 13 L 21 13 L 21 5 L 21.585938 5 L 27 10.414062 L 27 16 L 28 16 L 28 10 L 22 4 L 10 4 L 4 4 z M 11 5 L 17 5 L 17 12 L 11 12 L 11 5 z M 24.398438 16 L 19.287109 21.111328 L 16 24.398438 L 16 28 L 19.601562 28 L 28 19.601562 L 24.398438 16 z M 22.349609 19.490234 L 24.509766 21.650391 L 21.335938 24.824219 L 21.335938 24.150391 L 20.322266 24.173828 L 19.287109 24.173828 L 19.287109 23.136719 L 19.287109 22.552734 L 22.349609 19.490234 z M 18.273438 23.564453 L 18.273438 25.185547 L 20.300781 25.185547 L 20.322266 25.839844 L 19.240234 26.919922 L 17.800781 26.919922 L 17.080078 26.199219 L 17.080078 24.757812 L 18.273438 23.564453 z "
     id="path76" 
     class="ColorScheme-Text"
     />
</svg>

<svg viewBox="0 0 32 32" xmlns="http://www.w3.org/2000/svg">
 <defs>
  <style type="text/css">.ColorScheme-Text {
        color:#2e3440;
      }</style>
 </defs>
 <path class="ColorScheme-Text" d="m4 4v24h11v-1h-5v-7h8v-1h-9v8h-4v-22h5v8h11v-8h0.58594l5.4141 5.4141v5.5859h1v-6l-6-6h-12-6zm7 1h6v7h-6v-7zm13.398 11-8.3984 8.3984v3.6016h3.6016l8.3984-8.3984-3.6016-3.6016zm-2.0488 3.4902 2.1602 2.1602-3.1738 3.1738v-0.67383l-1.0137 0.023437h-1.0352v-1.0371-0.58398l3.0625-3.0625zm-4.0762 4.0742v1.6211h2.0273l0.021485 0.6543-1.082 1.0801h-1.4395l-0.7207-0.7207v-1.4414l1.1934-1.1934z" fill="currentColor"/>
</svg>
